svg/u1f68f.svg

<svg viewBox="0 0 128 128" xmlns="http://www.w3.org/2000/svg">
  <g>
    <line fill="none" stroke="#616161" stroke-width="3" stroke-miterlimit="10" x1="42.98" x2="72.77" y1="21.58" y2="21.58"/>
    <line fill="none" stroke="#616161" stroke-width="3" stroke-miterlimit="10" x1="42.98" x2="72.77" y1="36.82" y2="36.82"/>
    <path d="M64.79,124.32H53.3V7.49c0,0,1.07-2.49,5.75-2.49s5.75,2.49,5.75,2.49V124.32z" fill="#9E9E9E"/>
    <path d="M61.84,5.37v94.39H53.3v8.59c1.45,0.01,2.76,0.18,3.94,0.44c2.69,0.59,4.61,2.96,4.61,5.71v9.82 h2.95v-11.67V99.76V7.49C64.79,7.49,64.17,6.06,61.84,5.37z" fill="#757575"/>
    <path d="M92.64,4.32c-13.39,0-24.22,10.83-24.22,24.31s10.83,24.22,24.22,24.22s24.22-10.83,24.22-24.22 S106.03,4.32,92.64,4.32z" fill="#2196F3"/>
    <path d="M103.22,13.37c-1.52-0.38-4.55-0.78-10.57-0.78s-9.05,0.39-10.57,0.78 c-0.9,0.23-3.91,1.48-3.91,4.85c0,3.37,0,20.78,0,20.78c0,1.14,0.92,2.07,2.07,2.07H81v2.3c0,0.67,0.54,1.21,1.21,1.21h2.45 c0.67,0,1.21-0.54,1.21-1.21v-2.3h13.54v2.3c0,0.67,0.54,1.21,1.21,1.21h2.45c0.67,0,1.21-0.54,1.21-1.21v-2.3h0.78 c1.14,0,2.07-0.92,2.07-2.07c0,0,0-17.55,0-20.78C107.13,14.99,104.12,13.59,103.22,13.37z M86.11,15.02 c0-0.51,0.41-0.92,0.92-0.92h11.22c0.51,0,0.92,0.41,0.92,0.92v1.63c0,0.51-0.41,0.92-0.92,0.92H87.03c-0.51,0-0.92-0.41-0.92-0.92 V15.02z M86.3,36.91c0,0.34-0.28,0.62-0.62,0.62h-2.47c-1.16,0-2.11-0.94-2.11-2.11v-1.11c0-0.34,0.28-0.62,0.62-0.62h2.47 c1.16,0,2.11,0.94,2.11,2.11V36.91z M104.18,35.42c0,1.16-0.94,2.11-2.11,2.11H99.6c-0.34,0-0.62-0.28-0.62-0.62V35.8 c0-1.16,0.94-2.11,2.11-2.11h2.47c0.34,0,0.62,0.28,0.62,0.62V35.42z M104.74,26.39c0,1.34-2.9,3.68-12.1,3.68 c-9.21,0-12.1-2.17-12.1-3.68c0-1.51,0-6.14,0-6.14c0-0.4,0.4-1.4,1.4-1.4h21.56c1,0,1.24,1.01,1.24,1.4 C104.74,20.25,104.74,25.05,104.74,26.39z" fill="#FFFFFF"/>
    <g>
      <path d="M76.88,102.94H41.21c-1.26,0-2.28-1.02-2.28-2.28v-41.2c0-1.26,1.02-2.28,2.28-2.28h35.66 c1.26,0,2.28,1.02,2.28,2.28v41.2C79.15,101.92,78.13,102.94,76.88,102.94z" fill="#F5F5F5"/>
      <polygon points="73.03,96.13 45.06,96.13 44.98,63.57 72.96,63.57 " opacity="0.8" fill="#82AEC0"/>
      <line fill="none" stroke="#F5F5F5" stroke-width="2" stroke-miterlimit="10" x1="58.97" x2="58.97" y1="63.57" y2="96.56"/>
      <rect height="2.72" fill="#616161" width="12.99" x="44.98" y="63.57"/>
      <line fill="none" stroke="#F5F5F5" stroke-miterlimit="10" x1="44.95" x2="73.14" y1="89.96" y2="89.96"/>
      <line fill="none" stroke="#F5F5F5" stroke-miterlimit="10" x1="44.95" x2="73.14" y1="83.36" y2="83.36"/>
      <line fill="none" stroke="#F5F5F5" stroke-miterlimit="10" x1="44.98" x2="72.96" y1="76.76" y2="76.76"/>
      <line fill="none" stroke="#F5F5F5" stroke-miterlimit="10" x1="44.95" x2="72.96" y1="70.17" y2="70.17"/>
      <rect height="2.72" fill="#616161" width="12.99" x="59.96" y="75.41"/>
      <rect height="2.72" fill="#616161" width="12.95" x="45.08" y="82"/>
      <path d=" M76.88,102.94H41.21c-1.26,0-2.28-1.02-2.28-2.28v-41.2c0-1.26,1.02-2.28,2.28-2.28h35.66c1.26,0,2.28,1.02,2.28,2.28v41.2 C79.15,101.92,78.13,102.94,76.88,102.94z" fill="none" stroke="#9E9E9E" stroke-width="3" stroke-linecap="round" stroke-linejoin="round" stroke-miterlimit="10"/>
      <path d="M41.36,101.46c-1.55,0.14-1.55-0.88-1.55-1.16V59.95c0-1.13,0.92-2.05,2.05-2.05h34.62 c0.94,0,1.37,0.57,1.18,1.73c0,0-0.12-0.74-1.02-0.74H41.87c-0.58,0-1.06,0.48-1.06,1.06v40.36 C40.81,101.25,41.36,101.46,41.36,101.46z" fill="#757575"/>
    </g>
    <g>
      <rect height="29.6" fill="#FFCA28" width="34.08" x="13.13" y="14.2"/>
      <path d="M45.31,14.2c1.05,0,1.9,0.85,1.9,1.9v25.8c0,1.05-0.85,1.9-1.9,1.9H15.04 c-1.05,0-1.9-0.85-1.9-1.9V16.1c0-1.05,0.85-1.9,1.9-1.9H45.31 M45.31,12.2H15.04c-2.15,0-3.9,1.75-3.9,3.9v25.8 c0,2.15,1.75,3.9,3.9,3.9h30.27c2.15,0,3.9-1.75,3.9-3.9V16.1C49.22,13.95,47.46,12.2,45.31,12.2L45.31,12.2z" fill="#9E9E9E"/>
      <line fill="none" stroke="#FFFDE7" stroke-width="2" stroke-miterlimit="10" x1="13.13" x2="47.22" y1="23.89" y2="23.89"/>
      <line fill="none" stroke="#FFFDE7" stroke-width="2" stroke-miterlimit="10" x1="13.13" x2="47.22" y1="34.11" y2="34.11"/>
      <rect height="2.26" fill="#757575" width="8.57" x="15.23" y="17.49"/>
      <rect height="2.26" fill="#757575" width="6.46" x="15.23" y="38.22"/>
      <rect height="2.26" fill="#757575" width="6.46" x="37.96" y="38.22"/>
      <rect height="2.26" fill="#757575" width="6.46" x="37.96" y="17.49"/>
      <rect height="2.26" fill="#757575" width="3.72" x="34.64" y="27.86"/>
      <rect height="2.26" fill="#757575" width="3.72" x="40.7" y="27.86"/>
      <rect height="2.26" fill="#757575" width="11.88" x="15.23" y="27.86"/>
    </g>
  </g>
</svg>

<svg viewBox="0 0 128 128" xmlns="http://www.w3.org/2000/svg">
  <defs/>
  <path d="M42.98,20.08 L72.77,20.08 L72.77,23.08 L42.98,23.08 L42.98,20.08 Z" fill="#616161"/>
  <path d="M42.98,35.32 L72.77,35.32 L72.77,38.32 L42.98,38.32 L42.98,35.32 Z" fill="#616161"/>
  <path d="M64.79,124.32 L53.3,124.32 L53.3,7.49 C53.3,7.49 54.37,5 59.05,5 C63.73,5 64.8,7.49 64.8,7.49 L64.8,124.32 Z" fill="#9E9E9E"/>
  <path d="M61.84,5.37 L61.84,99.76 L53.3,99.76 L53.3,108.35 C54.75,108.36 56.06,108.53 57.24,108.79 C59.93,109.38 61.85,111.75 61.85,114.5 L61.85,124.32 L64.8,124.32 L64.8,112.65 L64.8,99.76 L64.8,7.49 C64.79,7.49 64.17,6.06 61.84,5.37 Z" fill="#757575"/>
  <path d="M92.64,4.32 C79.25,4.32 68.42,15.15 68.42,28.63 C68.42,42.11 79.25,52.85 92.64,52.85 C106.03,52.85 116.86,42.02 116.86,28.63 C116.86,15.24 106.03,4.32 92.64,4.32 Z" fill="#2196F3"/>
  <path d="M103.22,13.37 C101.7,12.99 98.67,12.59 92.65,12.59 C86.63,12.59 83.6,12.98 82.08,13.37 C81.18,13.6 78.17,14.85 78.17,18.22 C78.17,21.59 78.17,39 78.17,39 C78.17,40.14 79.09,41.07 80.24,41.07 L81,41.07 L81,43.37 C81,44.04 81.54,44.58 82.21,44.58 L84.66,44.58 C85.33,44.58 85.87,44.04 85.87,43.37 L85.87,41.07 L99.41,41.07 L99.41,43.37 C99.41,44.04 99.95,44.58 100.62,44.58 L103.07,44.58 C103.74,44.58 104.28,44.04 104.28,43.37 L104.28,41.07 L105.06,41.07 C106.2,41.07 107.13,40.15 107.13,39 C107.13,39 107.13,21.45 107.13,18.22 C107.13,14.99 104.12,13.59 103.22,13.37 Z M86.11,15.02 C86.11,14.51 86.52,14.1 87.03,14.1 L98.25,14.1 C98.76,14.1 99.17,14.51 99.17,15.02 L99.17,16.65 C99.17,17.16 98.76,17.57 98.25,17.57 L87.03,17.57 C86.52,17.57 86.11,17.16 86.11,16.65 L86.11,15.02 Z M86.3,36.91 C86.3,37.25 86.02,37.53 85.68,37.53 L83.21,37.53 C82.05,37.53 81.1,36.59 81.1,35.42 L81.1,34.31 C81.1,33.97 81.38,33.69 81.72,33.69 L84.19,33.69 C85.35,33.69 86.3,34.63 86.3,35.8 L86.3,36.91 Z M104.18,35.42 C104.18,36.58 103.24,37.53 102.07,37.53 L99.6,37.53 C99.26,37.53 98.98,37.25 98.98,36.91 L98.98,35.8 C98.98,34.64 99.92,33.69 101.09,33.69 L103.56,33.69 C103.9,33.69 104.18,33.97 104.18,34.31 L104.18,35.42 Z M104.74,26.39 C104.74,27.73 101.84,30.07 92.64,30.07 C83.43,30.07 80.54,27.9 80.54,26.39 C80.54,24.88 80.54,20.25 80.54,20.25 C80.54,19.85 80.94,18.85 81.94,18.85 L103.5,18.85 C104.5,18.85 104.74,19.86 104.74,20.25 C104.74,20.25 104.74,25.05 104.74,26.39 Z" fill="#FFFFFF"/>
  <path d="M76.88,102.94 L41.21,102.94 C39.95,102.94 38.93,101.92 38.93,100.66 L38.93,59.46 C38.93,58.2 39.95,57.18 41.21,57.18 L76.87,57.18 C78.13,57.18 79.15,58.2 79.15,59.46 L79.15,100.66 C79.15,101.92 78.13,102.94 76.88,102.94 Z" fill="#F5F5F5"/>
  <path d="M73.03,96.13 L45.06,96.13 L44.98,63.57 L72.96,63.57 Z" fill="#82AEC0" opacity="0.8"/>
  <path d="M59.97,63.57 L59.97,96.56 L57.97,96.56 L57.97,63.57 L59.97,63.57 Z" fill="#F5F5F5"/>
  <path d="M44.98,63.57 L57.97,63.57 L57.97,66.29 L44.98,66.29 L44.98,63.57 Z" fill="#616161"/>
  <path d="M44.95,89.46 L73.14,89.46 L73.14,90.46 L44.95,90.46 L44.95,89.46 Z" fill="#F5F5F5"/>
  <path d="M44.95,82.86 L73.14,82.86 L73.14,83.86 L44.95,83.86 L44.95,82.86 Z" fill="#F5F5F5"/>
  <path d="M44.98,76.26 L72.96,76.26 L72.96,77.26 L44.98,77.26 L44.98,76.26 Z" fill="#F5F5F5"/>
  <path d="M44.95,69.67 L72.96,69.67 L72.96,70.67 L44.95,70.67 L44.95,69.67 Z" fill="#F5F5F5"/>
  <path d="M59.96,75.41 L72.95,75.41 L72.95,78.13 L59.96,78.13 L59.96,75.41 Z" fill="#616161"/>
  <path d="M45.08,82 L58.03,82 L58.03,84.72 L45.08,84.72 L45.08,82 Z" fill="#616161"/>
  <path d="M76.88,104.44 L41.21,104.44 Q37.43,104.44 37.43,100.66 L37.43,59.46 Q37.43,57.894 38.537,56.787 Q39.644,55.68 41.21,55.68 L76.87,55.68 Q78.436,55.68 79.543,56.787 Q80.65,57.894 80.65,59.46 L80.65,100.66 Q80.65,102.224 79.546,103.332 Q78.441,104.44 76.88,104.44 Z M76.88,101.44 Q77.65,101.44 77.65,100.66 L77.65,59.46 Q77.65,58.68 76.87,58.68 L41.21,58.68 Q40.43,58.68 40.43,59.46 L40.43,100.66 Q40.43,101.44 41.21,101.44 Z" fill="#9E9E9E"/>
  <path d="M41.36,101.46 C39.81,101.6 39.81,100.58 39.81,100.3 L39.81,59.95 C39.81,58.82 40.73,57.9 41.86,57.9 L76.48,57.9 C77.42,57.9 77.85,58.47 77.66,59.63 C77.66,59.63 77.54,58.89 76.64,58.89 L41.87,58.89 C41.29,58.89 40.81,59.37 40.81,59.95 L40.81,100.31 C40.81,101.25 41.36,101.46 41.36,101.46 Z" fill="#757575"/>
  <path d="M13.13,14.2 L47.21,14.2 L47.21,43.8 L13.13,43.8 L13.13,14.2 Z" fill="#FFCA28"/>
  <path d="M45.31,14.2 C46.36,14.2 47.21,15.05 47.21,16.1 L47.21,41.9 C47.21,42.95 46.36,43.8 45.31,43.8 L15.04,43.8 C13.99,43.8 13.14,42.95 13.14,41.9 L13.14,16.1 C13.14,15.05 13.99,14.2 15.04,14.2 L45.31,14.2 M45.31,12.2 L15.04,12.2 C12.89,12.2 11.14,13.95 11.14,16.1 L11.14,41.9 C11.14,44.05 12.89,45.8 15.04,45.8 L45.31,45.8 C47.46,45.8 49.21,44.05 49.21,41.9 L49.21,16.1 C49.22,13.95 47.46,12.2 45.31,12.2 L45.31,12.2 Z" fill="#9E9E9E"/>
  <path d="M13.13,22.89 L47.22,22.89 L47.22,24.89 L13.13,24.89 L13.13,22.89 Z" fill="#FFFDE7"/>
  <path d="M13.13,33.11 L47.22,33.11 L47.22,35.11 L13.13,35.11 L13.13,33.11 Z" fill="#FFFDE7"/>
  <path d="M15.23,17.49 L23.8,17.49 L23.8,19.75 L15.23,19.75 L15.23,17.49 Z" fill="#757575"/>
  <path d="M15.23,38.22 L21.69,38.22 L21.69,40.48 L15.23,40.48 L15.23,38.22 Z" fill="#757575"/>
  <path d="M37.96,38.22 L44.42,38.22 L44.42,40.48 L37.96,40.48 L37.96,38.22 Z" fill="#757575"/>
  <path d="M37.96,17.49 L44.42,17.49 L44.42,19.75 L37.96,19.75 L37.96,17.49 Z" fill="#757575"/>
  <path d="M34.64,27.86 L38.36,27.86 L38.36,30.12 L34.64,30.12 L34.64,27.86 Z" fill="#757575"/>
  <path d="M40.7,27.86 L44.42,27.86 L44.42,30.12 L40.7,30.12 L40.7,27.86 Z" fill="#757575"/>
  <path d="M15.23,27.86 L27.11,27.86 L27.11,30.12 L15.23,30.12 L15.23,27.86 Z" fill="#757575"/>
</svg>
